X:1
T:The Farmer in the Dell
M:6/8
L:1/4
K:G
 D/2| G G/2 G G/2| G3/2- G A/2| B B/2 B B/2| B3/2- B z/2| d3/2 d e/2|\
 d B/2 G A/2| B B/2 A A/2| G3/2- G||
